icons/linear-ele-container-box-first-aid-kit.svg

<svg xmlns="http://www.w3.org/2000/svg" width="32px" height="32px" viewBox="0 0 32 32" version="1.1">
    <title>linear-ele-container-box-first-aid-kit</title>
    <g id="linear-ele-container-box-first-aid-kit" stroke-width="1" fill-rule="evenodd">
        <path d="M22,3 C22.5522847,3 23,3.44771525 23,4 L23,7 L26,7 C28.209139,7 30,8.790861 30,11 L30,25 C30,27.209139 28.209139,29 26,29 L6,29 C3.790861,29 2,27.209139 2,25 L2,11 C2,8.790861 3.790861,7 6,7 L9,7 L9,4 C9,3.44771525 9.44771525,3 10,3 L22,3 Z M26,9 L6,9 C4.8954305,9 4,9.8954305 4,11 L4,25 C4,26.1045695 4.8954305,27 6,27 L26,27 C27.1045695,27 28,26.1045695 28,25 L28,11 C28,9.8954305 27.1045695,9 26,9 Z M16,13 C16.5522847,13 17,13.4477153 17,14 L17,17 L20,17 C20.5522847,17 21,17.4477153 21,18 C21,18.5522847 20.5522847,19 20,19 L17,19 L17,22 C17,22.5522847 16.5522847,23 16,23 C15.4477153,23 15,22.5522847 15,22 L15,19 L12,19 C11.4477153,19 11,18.5522847 11,18 C11,17.4477153 11.4477153,17 12,17 L15,17 L15,14 C15,13.4477153 15.4477153,13 16,13 Z M21,5 L11,5 L11,7 L21,7 L21,5 Z" id="&#24418;&#29366;" fill-rule="nonzero" />
    </g>
</svg>

<svg xmlns="http://www.w3.org/2000/svg" viewBox="0 0 32 32"><path fill="currentColor" d="M22 3a1 1 0 0 1 1 1v3h3a4 4 0 0 1 4 4v14a4 4 0 0 1-4 4H6a4 4 0 0 1-4-4V11a4 4 0 0 1 4-4h3V4a1 1 0 0 1 1-1zm4 6H6a2 2 0 0 0-2 2v14a2 2 0 0 0 2 2h20a2 2 0 0 0 2-2V11a2 2 0 0 0-2-2m-10 4a1 1 0 0 1 1 1v3h3a1 1 0 0 1 0 2h-3v3a1 1 0 0 1-2 0v-3h-3a1 1 0 0 1 0-2h3v-3a1 1 0 0 1 1-1m5-8H11v2h10z"/></svg>
